X: 156
T: Laodong muofan Anbu qima
%%abc-version 2.0
%%abcx-abcm2ps-target-version 5.9.1 (29 Sep 2008)
%%abc-creator hum2abc beta
%%abcx-conversion-date 2013/10/02 07:44:27
%%abc-edited-by Helmut Schaffrath
%%humdrum-veritas 2120598533
%%humdrum-veritas-data 19726795
%%continueall 1
%%barnumbers 0
L: 1/8
M: 2/4
K: C
E3A [I:setbarnb 1]| 
GE2d | 
A4 | 
dc2e | 
A3c | 
A GE2 | 
AG2e | 
A4 | 
A G E A | 
GE2C | 
D2E2 | 
A4 | 
D2C A, | 
D GE2 | 
CA,3- | 
A,4 |]  



